americans/img/lock.svg

<svg width="53" height="53" viewBox="0 0 53 53" fill="none" xmlns="http://www.w3.org/2000/svg">
<path d="M43.0625 24.0156H39.543V12.4219C39.543 8.7626 36.5772 5.79688 32.918 5.79688H20.082C16.4228 5.79688 13.457 8.7626 13.457 12.4219V24.0156H9.9375C9.02139 24.0156 8.28125 24.7558 8.28125 25.6719V45.5469C8.28125 46.463 9.02139 47.2031 9.9375 47.2031H43.0625C43.9786 47.2031 44.7188 46.463 44.7188 45.5469V25.6719C44.7188 24.7558 43.9786 24.0156 43.0625 24.0156ZM27.9492 36.2822V39.0254C27.9492 39.2531 27.7629 39.4395 27.5352 39.4395H25.4648C25.2371 39.4395 25.0508 39.2531 25.0508 39.0254V36.2822C24.6235 35.9755 24.3046 35.5411 24.14 35.0416C23.9754 34.542 23.9735 34.0032 24.1346 33.5025C24.2957 33.0018 24.6115 32.5652 25.0366 32.2554C25.4617 31.9457 25.974 31.7788 26.5 31.7788C27.026 31.7788 27.5383 31.9457 27.9634 32.2554C28.3885 32.5652 28.7043 33.0018 28.8654 33.5025C29.0265 34.0032 29.0246 34.542 28.86 35.0416C28.6954 35.5411 28.3765 35.9755 27.9492 36.2822ZM35.8164 24.0156H17.1836V12.4219C17.1836 10.8226 18.4827 9.52344 20.082 9.52344H32.918C34.5173 9.52344 35.8164 10.8226 35.8164 12.4219V24.0156Z" fill="#D32F34"/>
</svg>

<svg width="53" height="53" fill="none" xmlns="http://www.w3.org/2000/svg"><path d="M43.063 24.016h-3.52V12.422a6.625 6.625 0 0 0-6.625-6.625H20.082a6.625 6.625 0 0 0-6.625 6.625v11.594h-3.52c-.916 0-1.656.74-1.656 1.656v19.875c0 .916.74 1.656 1.656 1.656h33.126c.916 0 1.656-.74 1.656-1.656V25.672c0-.916-.74-1.656-1.657-1.656ZM27.948 36.282v2.743a.415.415 0 0 1-.414.415h-2.07a.415.415 0 0 1-.414-.415v-2.743a2.484 2.484 0 1 1 2.898 0Zm7.867-12.266H17.184V12.422a2.9 2.9 0 0 1 2.898-2.899h12.836a2.9 2.9 0 0 1 2.898 2.899v11.594Z" fill="#D32F34"/></svg>
